X:1
T: The Maid of Feakle
C:
R:Reel
Q: 232
K:G
M:4/4
L:1/8
Bc|d2 BG AG EG|DG BG c2 Bc|d2 BG AG EG|DG BG A2 GB|
d2 BG AG EG|DG BG c2 BA|GA Bd ef ge|dB GB A2 G2|
|:Bc dB cB cd|Bc dB AE ED|Bc dB cB ce|dB GB A2 G2|
Bc dB cB cd|Bc dB AE ED|Bd df ed Bd|cg fa gf ge:|
d2 BG AG EG|DG BG c2 Bc|d2 BG AG EG|DG BG A2 GB|
d2 BG AG EG|DG BG c2 BA|GA Bd ef ge|dB GB A2 G2||
